icons/file_type_gatsby.svg

<svg xmlns="http://www.w3.org/2000/svg" viewBox="0 0 32 32"><path d="M27 16h-7v2h4.8a9.066 9.066 0 0 1-5.8 6.5L7.5 13A9 9 0 0 1 16 7a9.232 9.232 0 0 1 7.4 3.8l1.5-1.3a10.993 10.993 0 0 0-19.6 4.1l13.2 13.2A11.251 11.251 0 0 0 27 16Zm-22 .1a10.682 10.682 0 0 0 3.2 7.6 10.855 10.855 0 0 0 7.6 3.2Z" style="fill:#fff"/><path d="M16 2a14 14 0 1 0 14 14A14.041 14.041 0 0 0 16 2ZM8.2 23.8A10.855 10.855 0 0 1 5 16.2L15.9 27a11.351 11.351 0 0 1-7.7-3.2Zm10.2 2.9L5.3 13.6a10.993 10.993 0 0 1 19.6-4.1l-1.5 1.3A9.232 9.232 0 0 0 16 7a9.1 9.1 0 0 0-8.5 6L19 24.5a9.066 9.066 0 0 0 5.8-6.5H20v-2h7a11.031 11.031 0 0 1-8.6 10.7Z" style="fill:#639"/></svg>

<svg xmlns="http://www.w3.org/2000/svg" viewBox="0 0 32 32"><title>file_type_gatsby</title><path d="M27,16H20v2h4.8A9.066,9.066,0,0,1,19,24.5L7.5,13A9,9,0,0,1,16,7a9.232,9.232,0,0,1,7.4,3.8l1.5-1.3A10.993,10.993,0,0,0,5.3,13.6L18.5,26.8A11.251,11.251,0,0,0,27,16ZM5,16.1a10.682,10.682,0,0,0,3.2,7.6,10.855,10.855,0,0,0,7.6,3.2Z" style="fill:#fff"/><path d="M16,2A14,14,0,1,0,30,16,14.041,14.041,0,0,0,16,2ZM8.2,23.8A10.855,10.855,0,0,1,5,16.2L15.9,27A11.351,11.351,0,0,1,8.2,23.8Zm10.2,2.9L5.3,13.6A10.993,10.993,0,0,1,24.9,9.5l-1.5,1.3A9.232,9.232,0,0,0,16,7a9.1,9.1,0,0,0-8.5,6L19,24.5A9.066,9.066,0,0,0,24.8,18H20V16h7A11.031,11.031,0,0,1,18.4,26.7Z" style="fill:#639"/></svg>
